X: 5376
T: Bucks Of Oranmore, The
R: reel
M: 4/4
K: Dmajor
~A2FA ~A2FA|~A2FA Be~3|~A2DA ~A2AF|(3Bcd fd efdA|
~A2FA DAAD|AADA BEEe|DF~F2 ADFA|defd efdB|
ADED ADBD|~A2fA BEE2|DF~F2 ADFA|defd efge|
~a2fd eAde|~a2fd eB~B2|deaa fdef|geFd eAde|
~a2fd ed(3Bcd|eaaf ~g3a|fa~a2 bfaf|(3Bcd fd efde|
fedf efde|fedf ed(3Bcd|ef~f2 efde|fefd ed(3Bcd|
fd(3Bcd ed(3Bcd|effd ed(3Bcd|ea~a2 bgaf|(3Bcd fd efdB|
Adfd edfd|(3Bcd fd edBA|(3Bcd fded|effd efdB|
Adfd adfd|(3Bcd fd edBd|ea~a2 bgaf|defd efdB|

